X: 17725
T: Home Ruler, The
R: hornpipe
M: 4/4
K: Dmajor
M:6/8
DFA DFA|dfe dAF|BAB dAF|EDE GFE|
DFA DFA|dfe dAF|AFA dAF|EFE D3:|
Adc ddf|afb afd|efe dBA|fdf edB|
Adc ddf|afb afd|efe dBA|FEA D3:|

